X:156
T: ICH BIN SO GERN HIER OBEN
N: B0186
O: Europa, Mitteleuropa, Deutschland; Schweiz
R: Natur - Lied, Berg
M: 2/4
L: 1/16
K: Bb
DE | F2G2F2B2 | B3GF2
FB | B2Fdd3c | B4z2
F2 | G2G2B2G2 | F4D2
F2 | G2GAcBAG | F4D2
B2 | A2c2B2d2 | c2e2d2
f2 | f3ed2c2 | B4z2

